X:1
T:Title
%%score { ( 1 3 ) | 2 }
L:1/8
Q:1/4=110
M:4/4
K:Eb
V:1 treble nm="Grand Piano"
V:3 treble 
V:2 bass 
V:1
 [GB]2 [GB]>[GB] [GB]2 [Ge]2 | [GB]4 G4 | A2 A>A A2 [DB]2 | G6 z2 | B2 B>B B2 B2 | c4 c4 | %6
w: John~R.~Sweney * * * *||||||
 c2 c>c d2 e2 | d6 z2 | d2 dd [Ad]2 [Ac][Ad] | [Ge]4 [GB]4 | c2 cc B2 AA | G6 z2 | %12
w: ||||||
 [DF]2 [DF][DF] [DF]2 [EG][FA] | [EG]4 [GB]4 | d2 dd c2 [Ad]2 | [Ge]6 z2 | [B,GB]2 B,2 G2 B,2 | %17
w: |||||
 [GB]6 z2 | [EGB]2 [B,EG]>[B,FA] [B,GB]2 [Ge]2 | [Ae]4 [Ad]4 | [Ad]2 B,2 [B,FA]2 B,2 | [FA]6 z2 | %22
w: |||||
 [Fd]2 [DF]>[EG] [GB]2 [B,FA]2 | [B,EG]6 z2 | [B,GB]2 B,2 G2 B,2 | [GB]6 z2 | %26
w: ||||
 [Ge]2 [Ge]>[Ge] [Ge]2 [Bd]2 | [Bd]4 c4 | c2 B,2 d2 B,2 | [Ge]6 z2 | %30
w: ||||
 [Fd]2 [B,DF]>[B,FA] [B,EG]2 [A,DF]2 | [G,E]6 z2 |] %32
w: ||
V:2
 [E,E]2 [E,E]>[E,E] [E,E]2 [E,B,]2 | [E,E]4 [E,B,E]4 | [F,B,D]2 [F,B,D]>[F,B,D] [F,B,D]2 [B,,B,]2 | %3
 [E,B,E]6 z2 | [G,B,E]2 [G,B,E]>[G,B,E] [G,B,E]2 [G,B,E]2 | [A,E]4 [A,E]4 | %6
 [F,=A,F]2 [F,A,F]>[F,A,F] [F,B,F]2 [F,CF]2 | [B,F]6 z2 | %8
 [A,B,F]2 [A,B,F][A,B,F][K:bass] [F,B,]2 [F,B,][F,B,] | [E,B,]4 [E,E]4 | %10
 [A,E]2 [A,E][A,E] [G,B,E]2 [F,B,D][F,B,D] | [E,B,E]6 z2 | %12
 [B,,B,]2 [B,,B,][B,,B,] [B,,B,]2 [B,,B,][B,,B,] | [E,B,]4 [E,E]4 | %14
 [B,FA]2 [B,FA][B,FA] [B,DA]2[K:bass] [B,,B,]2 | [E,B,]6 z2 | E,2 B,,2 [E,B,E]2 B,,2 | %17
 E,2 B,,2 E,2[K:treble] (3GA=A | E,2 E,>E, E,2 [E,B,]2 | [F,B,]4 [F,B,]4 | [F,B,]2 B,,2 D,2 B,,2 | %21
 F,2 B,,2 B,2 z2 | [B,,B,]2 [B,,B,]>[B,,B,] [B,,B,]2 D,2 | E,6 (3B,[K:treble]EG | %24
 E,2 B,,2 [E,B,E]2 B,,2 | E,2 B,,2 D,2 z2 | [E,B,]2 [E,B,]>[E,B,] [E,B,]2 [G,E]2 | [A,E]4 [A,EA]4 | %28
 [A,B,D]2 B,,2 [B,F]2 B,,2 | [E,B,]2 B,,2 E,2[K:treble] (3GBe | B,2 B,,>B,, B,,2 B,,2 | E,6 z2 |] %32
V:3
 x8 | x8 | x8 | x8 | x8 | x8 | x8 | x8 | x8 | x8 | x8 | x8 | x8 | x8 | x8 | x8 | x8 | %17
 B,2 E2 E2 z2 | x8 | x8 | x8 | D2 D2 D2 (3GAB | x8 | x8 | x8 | B,2 E2 E2 (3EGB | x8 | x8 | x8 | %29
 z2 B,2 B,2 z2 | x8 | x8 |] %32

